X: 35139
T: Ronan Boys, The
R: reel
M: 4/4
K: Dmajor
|:D2(3FED FAAF|E2DE FAAB|ABde faaf|edBA FEE2|
D2(3FED FAAF|GFED FAdf|gfed B2dB|AFEF EDD2:|
|:a2ag fgag|addc defg|a2ag fgad|bdad g2fg|
a2ag fgaf|g2ed (3Bcd ef|gfed B2dB|AFEF EDD2:|

